X:1
T:Ebenezer, 87.87 D
T:Thomas John Williams, 1890
T:Ebenezer, 87.87 D
T:Public Domain
C:Thomas John Williams, 1890
Z:Public Domain
%%score ( 1 2 ) ( 3 4 )
L:1/8
M:none
K:Ab
V:1 treble 
V:2 treble 
V:3 bass 
V:4 bass 
V:1
 [CF]2 (3(FGA) [=EG]2 F2 | [FG]2 (3(GAB) A>G [CF]2 | [Cc]2 (3(Bc[Fd]) (c>B) [FA]2 | %3
 (B>A) [=EG]2 F4 | [CF]2 (3(FGA) [=EG]2 F2 | [FG]2 (3(GAB) (A>G) [CF]2 | %6
 [Cc]2 (3(Bc[Fd]) (c>B) [FA]2 | (B>A) [=EG]2 F4 | [Ec]2 (3(ABc) [EB]2 [EB]2 | %9
 [CA]2 (3(F-[FG]A) [FG]2 G2 | F2 (3(FGA) [FB]2 [EB]2 | [CA]2 (3(BAB) [=Ec]4 | %12
 [A,F]2 (3(F-[FG]A) [=EG]2 F2 | [FG]2 (3(GAB) (A>G) F2 | [Ec]2 (3(Bcd) (c>B) [FA]2 | %15
 (B>A) [=EG]2 F4 |] %16
V:2
 x2 C2 x4/3 F2 x2/3 | x2 =E2 F2 x2 | x2 E2 G2 x2 | F2 x/ F4 x3/2 | x2 C2 x4/3 F2 x2/3 | %5
 x2 =E2 F2 x2 | x2 E2 G2 x2 | F2 x/ F4 x3/2 | x2 E2 x4 | x6 G2 | F2 C2 x4 | x2 F2 x4 | x6 F2 | %13
 x2 =E2 F2 F2 | x2 E2 E2 x2 | F2 x/ F4 x3/2 |] %16
V:3
 [F,,A,]2 [A,,C]2 [C,C]2 [D,A,]2 | [B,,D]2 [C,C]2 (C>B,) [F,A,]2 | %2
 [A,E]2 [G,B,][G,B,] [=E,C]2 [F,C]2 | (D>C) [C,B,]2 [F,A,]4 | [F,,A,]2 [A,,C]2 [C,C]2 [D,A,]2 | %5
 [B,,D]2 [C,C]2 (C>B,) [F,A,]2 | [A,E]2 (3([G,B,]-[G,B,][F,A,]) [=E,C]2 [F,C]2 | %7
 (D>C) [C,B,]2 [F,A,]4 | [A,,A,]2 [C,A,]2 [E,A,]2 [E,G,]2 | [F,A,]2 [A,,C]2 [C,C]2 [C,C]2 | %10
 F,2 [E,A,]2 [D,A,]2 [E,G,]2 | (F,E,) [D,F,]2 [C,G,]4 | [D,F,]2 [A,,C]2 [C,C]2 [D,A,]2 | %13
 [B,,D]2 [C,C]2 (C>B,) [F,A,]2 | A,2 (3(G,A,B,) (A,>G,) [D,F,]2 | (D>C) [C,B,]2 [F,A,]4 |] %16
V:4
 x8 | x4 F,2 x2 | x8 | B,,2 x6 | x8 | x4 F,2 x2 | x8 | B,,2 x6 | x8 | x8 | F,2 x6 | A,2 x6 | x8 | %13
 x4 F,2 x2 | A,2 E,2 A,,2 x2 | B,,2 x6 |] %16

